build/images/img/reply.svg

<svg xmlns="http://www.w3.org/2000/svg"><path fill-rule="evenodd" fill="#747a86" d="M7.333 3.338V1a1 1 0 00-1-1 .99.99 0 00-.673.267l-.43.398c-1.416 1.31-3.787 3.503-5 4.72A.86.86 0 000 6c0 .247.082.465.23.615 1.213 1.216 3.584 3.409 5 4.719l.43.398a.987.987 0 00.673.268c.552 0 1-.449 1-1V8.669c4.8.067 8 1.581 8 2.997a.333.333 0 10.667 0c0-4.491-3.858-8.165-8.667-8.328zM7 8a.334.334 0 00-.334.333V11a.333.333 0 01-.333.333.323.323 0 01-.22-.09l-.43-.398C4.27 9.538 1.906 7.351.703 6.144.685 6.126.666 6.074.666 6c0-.075.019-.127.037-.145 1.203-1.207 3.567-3.394 4.98-4.7l.43-.399a.323.323 0 01.22-.09c.184 0 .333.15.333.334v2.666c0 .184.15.334.334.334 4.008 0 7.364 2.616 8.156 6.09C13.734 8.844 10.654 8 7 8z"/></svg>

<svg 
 xmlns="http://www.w3.org/2000/svg"
 xmlns:xlink="http://www.w3.org/1999/xlink">
<path fill-rule="evenodd" fill="#747a86"
 d="M7.333,3.338 L7.333,1.000 C7.333,0.448 6.885,-0.000 6.333,-0.000 C6.085,-0.000 5.846,0.095 5.660,0.267 L5.230,0.665 C3.814,1.975 1.443,4.168 0.230,5.385 C0.082,5.534 -0.000,5.752 -0.000,6.000 C-0.000,6.247 0.082,6.465 0.230,6.615 C1.443,7.831 3.814,10.024 5.230,11.334 L5.660,11.732 C5.846,11.905 6.085,12.000 6.333,12.000 C6.885,12.000 7.333,11.551 7.333,11.000 L7.333,8.669 C12.133,8.736 15.333,10.250 15.333,11.666 C15.333,11.851 15.482,12.000 15.666,12.000 C15.851,12.000 16.000,11.851 16.000,11.666 C16.000,7.175 12.142,3.501 7.333,3.338 ZM7.000,8.000 C6.816,8.000 6.666,8.149 6.666,8.333 L6.666,11.000 C6.666,11.184 6.517,11.333 6.333,11.333 C6.232,11.333 6.157,11.284 6.113,11.243 L5.683,10.845 C4.270,9.538 1.906,7.351 0.703,6.144 C0.685,6.126 0.666,6.074 0.666,6.000 C0.666,5.925 0.685,5.873 0.703,5.855 C1.906,4.648 4.270,2.461 5.683,1.155 L6.113,0.756 C6.157,0.715 6.232,0.666 6.333,0.666 C6.517,0.666 6.666,0.816 6.666,1.000 L6.666,3.666 C6.666,3.850 6.816,4.000 7.000,4.000 C11.008,4.000 14.364,6.616 15.156,10.090 C13.734,8.844 10.654,8.000 7.000,8.000 Z"/>
</svg>
